image/footer-icons/instagram.svg

<svg width="21" height="20" viewBox="0 0 21 20" fill="none" xmlns="http://www.w3.org/2000/svg">
<path d="M10.0481 6.66525C8.21189 6.66525 6.7134 8.16376 6.7134 10C6.7134 11.8362 8.21189 13.3348 10.0481 13.3348C11.8843 13.3348 13.3828 11.8362 13.3828 10C13.3828 8.16376 11.8843 6.66525 10.0481 6.66525ZM20.0497 10C20.0497 8.61907 20.0622 7.25064 19.9846 5.87221C19.9071 4.27113 19.5418 2.85017 18.3711 1.67938C17.1978 0.506085 15.7794 0.14334 14.1783 0.065788C12.7974 -0.0117644 11.429 0.000744113 10.0506 0.000744113C8.66969 0.000744113 7.30129 -0.0117644 5.92288 0.065788C4.32183 0.14334 2.9009 0.508587 1.73013 1.67938C0.556857 2.85267 0.194119 4.27113 0.116568 5.87221C0.0390171 7.25314 0.0515253 8.62157 0.0515253 10C0.0515253 11.3784 0.0390171 12.7494 0.116568 14.1278C0.194119 15.7289 0.559359 17.1498 1.73013 18.3206C2.9034 19.4939 4.32183 19.8567 5.92288 19.9342C7.30379 20.0118 8.67219 19.9993 10.0506 19.9993C11.4315 19.9993 12.7999 20.0118 14.1783 19.9342C15.7794 19.8567 17.2003 19.4914 18.3711 18.3206C19.5443 17.1473 19.9071 15.7289 19.9846 14.1278C20.0647 12.7494 20.0497 11.3809 20.0497 10ZM10.0481 15.131C7.20873 15.131 4.91722 12.8394 4.91722 10C4.91722 7.16058 7.20873 4.86903 10.0481 4.86903C12.8875 4.86903 15.179 7.16058 15.179 10C15.179 12.8394 12.8875 15.131 10.0481 15.131ZM15.3891 5.8572C14.7262 5.8572 14.1908 5.32184 14.1908 4.65889C14.1908 3.99594 14.7262 3.46058 15.3891 3.46058C16.052 3.46058 16.5874 3.99594 16.5874 4.65889C16.5876 4.81631 16.5567 4.97222 16.4966 5.1177C16.4364 5.26317 16.3482 5.39535 16.2369 5.50666C16.1255 5.61798 15.9934 5.70624 15.8479 5.76639C15.7024 5.82654 15.5465 5.8574 15.3891 5.8572Z" fill="white"/>
</svg>

<svg fill="none" height="20" width="21" xmlns="http://www.w3.org/2000/svg"><path d="M10.048 6.665A3.342 3.342 0 006.713 10a3.342 3.342 0 003.335 3.335A3.342 3.342 0 0013.383 10a3.342 3.342 0 00-3.335-3.335zM20.05 10c0-1.38.012-2.75-.065-4.128-.078-1.6-.443-3.022-1.614-4.193C17.198.506 15.78.143 14.178.066 12.798-.012 11.43 0 10.051 0 8.67 0 7.3-.012 5.923.066 4.322.143 2.9.509 1.73 1.679.557 2.853.194 4.271.117 5.872.039 7.253.052 8.622.052 10c0 1.378-.013 2.75.065 4.128.077 1.6.442 3.022 1.613 4.193 1.173 1.173 2.592 1.536 4.193 1.613 1.38.078 2.75.065 4.128.065 1.38 0 2.749.013 4.127-.065 1.601-.077 3.022-.443 4.193-1.613 1.173-1.174 1.536-2.592 1.614-4.193.08-1.379.065-2.747.065-4.128zm-10.002 5.131A5.124 5.124 0 014.918 10a5.124 5.124 0 015.13-5.131c2.84 0 5.131 2.292 5.131 5.131a5.124 5.124 0 01-5.13 5.131zm5.341-9.274c-.663 0-1.198-.535-1.198-1.198s.535-1.198 1.198-1.198a1.197 1.197 0 01.848 2.046 1.198 1.198 0 01-.848.35z" fill="#fff"/></svg>
